!!!!SEGMENT: pl-kk--kk-i-7--049-001_samin-vulfran--missa-sancti-spiritus-kyrie.krn
!!!cenid: 16xx:860
!!!COM: Samin, Vulfran
!!!COM-rismid: pe30102784
!!!CDT: <1543->1559
!!!CNT: French
!!!OPR: Missa Sancti Spiritus
!!!OTL: Kyrie
!!!OMV: 001
!!!PDT:
!!!AGN: Sacred; Mass
!!!SMS-siglum: PL-Kk
!!!SMS-shelfmark: Kk.I.7
!!!SMS-shelfwork: 049-001 M
!!!SMS-variant:
!!!SMS-altvar:
!!!NIFC-rismid: 300258126
!!!URL-scan: http://repozytorium.nifc.pl/skany/pl-kk-nut--i-7
!!!ONB-nifc: UWAGA: C (skan 0044-0046, s.83-86), A (0129-0130, s.78-80), T(0205-0206, s.73-75), B(0294, s.74-75). Części Mszy: 1. Kyrie, 2. Et in terra, 3. Sanctus, 4. Agnus Dei
!!!AIN: 1 alto 1 bass 1 soprn 1 tenor
!!!key:
**kern	**text	**kern	**text	**kern	**text	**kern	**text
*part4	*part4	*part3	*part3	*part2	*part2	*part1	*part1
*staff4	*staff4	*staff3	*staff3	*staff2	*staff2	*staff1	*staff1
*Ibass	*	*Itenor	*	*Ialto	*	*Isoprn	*
*I"BASSVS.	*	*I"TENOR.	*	*I"ALTVS.	*	*I"CANTVS.	*
*I'B	*	*I'T	*	*I'A	*	*I'S	*
*clefF4	*	*clefC4	*	*clefC3	*	*clefC1	*
*k[]	*	*k[]	*	*k[]	*	*k[]	*
*C:	*	*C:	*	*C:	*	*C:	*
*M2/1	*	*M2/1	*	*M2/1	*	*M2/1	*
*met(c|)	*	*met(c|)	*	*met(c|)	*	*met(c|)	*
=1	=1	=1	=1	=1	=1	=1	=1
!LO:TX:a:t=Miſsa S(an)cti Spiritûs.	!	!	!	!LO:TX:a:t=Miſsa S(an)cti Spiritûs.	!	!	!
0r	.	1.G/	Ky-	00r	.	00r	.
.	.	2G/	-ri-	.	.	.	.
=2-	=2-	=2-	=2-	=2-	=2-	=2-	=2-
1.C/	Ky-	2A/	-e	.	.	.	.
!	!	!LO:TX:t=P:problem=kreska pseudotaktowa	!	!	!	!	!
.	.	2G/	e-	.	.	.	.
.	.	1c\	-lei-	.	.	.	.
!LO:TX:t=P:problem=kreska pseudotaktowa	!	!	!	!	!	!	!
2C/	-ri-	.	.	.	.	.	.
=3-	=3-	=3-	=3-	=3-	=3-	=3-	=3-
*	*	*2\right	*	*	*	*	*
!	!	!	!	!LO:TX:t=P:problem=kreska pseudotaktowa	!	!LO:TX:t=P:problem=kreska pseudotaktowa	!
2D/	-e	2B\	.	00r	.	0r	.
2C/	e-	1c\	.	.	.	.	.
!LO:TX:t=P:problem=kreska pseudotaktowa	!	!	!	!	!	!	!
1F\	.	.	.	.	.	.	.
!	!	!LO:TX:t=P:problem=kreska pseudotaktowa	!	!	!	!	!
.	.	2A\	.	.	.	.	.
=4-	=4-	=4-	=4-	=4-	=4-	=4-	=4-
!LO:TX:t=P:problem=2\right&colon; global	!	!	!	!	!	!	!
2E\	.	2B\	.	.	.	1.g\	Ky-
2.C/	.	2c\	.	.	.	.	.
!	!	!LO:TX:t=P:problem=kreska pseudotaktowa	!	!	!	!	!
.	.	1G/	-son	.	.	.	.
4D\	.	.	.	.	.	.	.
2E\	.	.	.	.	.	2g/	-ri-
=5-	=5-	=5-	=5-	=5-	=5-	=5-	=5-
*	*	*	*ij	*	*	*2\right	*
2F\	.	2r	.	1.c\	Ky-	2a\	-e
!LO:TX:t=P:problem=kreska pseudotaktowa	!	!	!	!	!	!	!
2C/	.	2G/	Ky-	.	.	2g\	.
!	!	!	!	!	!	!LO:TX:t=P:problem=kreska pseudotaktowa	!
2AA/	-lei-	2A/	-ri-	.	.	1cc\	e-
2C/	.	1G/	-e	2c/	-ri-	.	.
=6-	=6-	=6-	=6-	=6-	=6-	=6-	=6-
*	*	*	*	*2\right	*	*	*
2GG,</	-son	.	.	2d\	-e	2b\	.
!	!	!LO:TX:t=P:problem=kreska pseudotaktowa	!	!	!	!	!
2C/	e-	2G/	e-	2c\	.	2cc\	.
!	!	!	!	!LO:TX:t=P:problem=kreska pseudotaktowa	!	!	!
4D\	-lei-	4F/	.	1f\	e-	1.a\	-lei-
4E\	.	4G/	.	.	.	.	.
4F\	.	4A/	.	.	.	.	.
!LO:TX:t=P:problem=kreska pseudotaktowa	!	!	!	!	!	!	!
4G\	.	4B/	.	.	.	.	.
=7-	=7-	=7-	=7-	=7-	=7-	=7-	=7-
2A\	.	2c\	-lei-	2e\	-lei-	.	.
2.D\	.	2.d\	.	1f\	.	2a\	-son
.	.	.	.	.	.	2f/	.
4E\	.	4c\	.	.	.	.	.
!LO:TX:t=P:problem=kreska pseudotaktowa	!	!LO:TX:t=P:problem=kreska pseudotaktowa	!	!	!	!	!
2F\	.	2A\	.	1d\	.	2.a\	e-
=8-	=8-	=8-	=8-	=8-	=8-	=8-	=8-
2G\	.	2B\	.	.	.	.	.
.	.	.	.	.	.	4g/	.
2E\	.	2G/	.	2c/	.	1g\	-lei-
1D\	.	1A\	.	1d\	.	.	.
.	.	.	.	.	.	2f#X/	.
=9-	=9-	=9-	=9-	=9-	=9-	=9-	=9-
0GG/;	-son	0G/;	-son	0B/;	-son	0g\;	-son
=10||	=10||	=10||	=10||	=10||	=10||	=10||	=10||
*M2/1	*	*M2/1	*Xij	*M2/1	*	*M2/1	*
*met(c|)	*	*met(c|)	*	*met(c|)	*	*met(c|)	*
!LO:TX:t=P:problem=kreska pseudotaktowa	!	!LO:TX:t=P:problem=kreska pseudotaktowa	!	!	!	!	!
00r	.	0r	.	1r	.	1g\	Chris-
.	.	.	.	2r	.	2fn/	-te
.	.	.	.	1c\	Chris-	2e/	.
=11-	=11-	=11-	=11-	=11-	=11-	=11-	=11-
!	!	!	!	!	!	!LO:TX:t=P:problem=kreska pseudotaktowa	!
.	.	1G/	Chris-	.	.	1g\	e-
!	!	!	!	!LO:TX:t=P:problem=kreska pseudotaktowa	!	!	!
.	.	.	.	2B/	-te	.	.
.	.	2F/	-te	2A/	e-	2a\	-lei-
.	.	2E/	.	2c\	.	2g\	.
=12-	=12-	=12-	=12-	=12-	=12-	=12-	=12-
2r	.	0G/	e-	2d\	-lei-	2b\	.
1C/	Chris-	.	.	1e\	.	2cc\	.
!	!	!	!	!	!	!LO:TX:t=P:problem=kreska pseudotaktowa	!
.	.	.	.	.	.	1g\	-son
!	!	!	!	!LO:TX:t=P:problem=kreska pseudotaktowa	!	!	!
2BB/	.	.	.	2d\	.	.	.
=13-	=13-	=13-	=13-	=13-	=13-	=13-	=13-
2AA/	-te	2A/	-lei-	2c\	.	2r	.
!LO:TX:t=P:problem=kreska pseudotaktowa	!	!	!	!	!	!	!
*	*	*	*	*	*	*	*ij
2C/	e-	1G/	-ſon	2.e\	.	2cc\	Chris-
1D\	-lei-	.	.	.	.	2b\	.
.	.	.	.	4d\	.	.	.
!	!	!	!	!	!	!LO:TX:t=P:problem=kreska pseudotaktowa	!
.	.	2F/	.	2d\	.	2a\	-te
=14-	=14-	=14-	=14-	=14-	=14-	=14-	=14-
!	!	!LO:TX:t=P:problem=kreska pseudotaktowa	!	!	!	!	!
!	!	!LO:TX:b:t=Miſsa \nS(an)cti Spiritûs.	!	!	!	!	!
2.C/	.	1G/	.	2e\	.	2.cc\	e-
!	!	!	!	!LO:TX:t=P:problem=kreska pseudotaktowa	!	!	!
.	.	.	.	2c/	.	.	.
4D\	.	.	.	.	.	8b\L	.
.	.	.	.	.	.	8a\J	.
!	!	!LO:LB:g=original	!	!	!	!	!
2E\	-son	1r	.	2B/	.	2g\	-lei-
2F\	.	.	.	2A/	.	2a\	.
=15-	=15-	=15-	=15-	=15-	=15-	=15-	=15-
!	!	!	!	!	!	!LO:TX:b:t=Miſsa \nS(an)cti Spiritûs.	!
!LO:TX:t=P:problem=kreska pseudotaktowa	!	!	!	!	!	!LO:TX:t=P:problem=kreska pseudotaktowa	!
1C/	.	2r	.	2c/	.	1g\	-son
*	*	*	*ij	*	*	*	*Xij
!	!	!	!	!LO:TX:t=P:problem=kreska pseudotaktowa	!	!	!
.	.	2c\	Chris-	2G/	.	.	.
!	!	!	!	!	!	!LO:TX:t=P:problem=kreska pseudotaktowa	!
!LO:LB:g=original	!	!	!	!LO:LB:g=original	!	!LO:LB:g=original	!
2r	.	2B\	-te	2d\	.	1r	.
!	!	!LO:TX:t=P:problem=kreska pseudotaktowa	!	!	!	!	!
1F\	x-	2A\	.	4c/	.	.	.
.	.	.	.	4B/	.	.	.
=16-	=16-	=16-	=16-	=16-	=16-	=16-	=16-
.	.	1c\	e-	4A/	.	1cc\	X-
.	.	.	.	4G/	.	.	.
2E\	-te	.	.	1g\	.	.	.
2D\	.	2d\	.	.	.	2b\	-te
!LO:TX:t=P:problem=kreska pseudotaktowa	!	!	!	!LO:TX:t=P:problem=kreska pseudotaktowa	!	!	!
2F\	e-	1c\	-lei-	2f\	.	2a\	e-
=17-	=17-	=17-	=17-	=17-	=17-	=17-	=17-
*lig	*	*	*	*	*	*	*
1C/	-lei-	.	.	2e\	.	1cc\	-lei-
.	.	4B\	.	2.g\	.	.	.
.	.	4A\	.	.	.	.	.
1GG/	.	1B\	.	.	.	1dd\	.
.	.	.	.	4f\	.	.	.
.	.	.	.	2d\	.	.	.
*Xlig	*	*	*	*	*	*	*
=18-	=18-	=18-	=18-	=18-	=18-	=18-	=18-
0C/;	-son	0c\;	-ſon	0e\;	-son.	0g\;	-son
=19||	=19||	=19||	=19||	=19||	=19||	=19||	=19||
*M2/1	*	*M2/1	*Xij	*M2/1	*	*M2/1	*
*met(c|)	*	*met(c|)	*	*met(c|)	*	*met(c|)	*
1.C/	Ky-	1r	.	1.e\	Ky-	1.g\	Ky-
.	.	1.c\	Ky-	.	.	.	.
2C/	-ri-	.	.	2e\	-ri-	2g/	-ri-
=20-	=20-	=20-	=20-	=20-	=20-	=20-	=20-
*lig	*	*	*	*	*	*	*
!	!	!	!	!LO:TX:t=P:problem=kreska pseudotaktowa	!	!LO:TX:t=P:problem=kreska pseudotaktowa	!
1AA/	-e	.	.	0e\	-e	1a\	-e
.	.	2c\	-ri-	.	.	.	.
!LO:TX:t=P:problem=kreska pseudotaktowa	!	!	!	!	!	!	!
*	*	*	*	*	*	*lig	*
1E\	.	1B\	-e	.	.	1g\	e-
*Xlig	*	*	*	*	*	*	*
=21-	=21-	=21-	=21-	=21-	=21-	=21-	=21-
2AA/	e-	2.A\	e-	2c\	e-	1cc\	.
1A\	.	.	.	2e\	.	.	.
!	!	!LO:TX:t=P:problem=kreska pseudotaktowa	!	!	!	!	!
.	.	4B\	.	.	.	.	.
*	*	*	*	*	*	*Xlig	*
.	.	2c\	-lei-	2f\	.	2a\	.
4G\	.	1d\	.	1g\	.	1b\	.
!LO:TX:t=P:problem=kreska pseudotaktowa	!	!	!	!	!	!	!
4F\	.	.	.	.	.	.	.
=22-	=22-	=22-	=22-	=22-	=22-	=22-	=22-
2G\	-lei-	.	.	.	.	.	.
!	!	!	!	!LO:TX:t=P:problem=kreska pseudotaktowa	!	!	!
2A\	.	2c\	.	2e\	.	2.a\	.
*lig	*	*	*	*	*	*	*
1F\	.	2A,<\	-son	1f\	.	.	.
.	.	.	.	.	.	4g\	.
*	*	*	*ij	*	*	*	*
.	.	1c\	Ky-	.	.	2a\	.
=23-	=23-	=23-	=23-	=23-	=23-	=23-	=23-
!	!	!	!	!	!	!LO:TX:t=P:problem=kreska pseudotaktowa	!
1G\	.	.	.	2e\	.	[<1g\	.
!	!	!	!	!LO:TX:t=P:problem=kreska pseudotaktowa	!	!	!
.	.	2B\	-ri-	2d\	.	.	.
!	!	!LO:TX:t=P:problem=kreska pseudotaktowa	!	!	!	!	!
*Xlig	*	*	*	*	*	*	*
!	!	!	!	!	!	!LO:N:xstem:cue:vis=4	!
2C/	.	2c\	-e	2e\	.	2g\]	.
!LO:TX:t=P:problem=kreska pseudotaktowa	!	!	!	!	!	!	!
2D\	.	2.A/	e-	2d\	.	2f/	.
=24-	=24-	=24-	=24-	=24-	=24-	=24-	=24-
*lig	*	*	*	*	*	*	*
1E\	.	.	.	2c/	-lei-	2g/	-lei-
.	.	4G/	.	.	.	.	.
!	!	!	!	!	!	!LO:TX:t=P:problem=kreska pseudotaktowa	!
.	.	1G/	-lei-	2B/	.	2e/	.
1D\	.	.	.	2d\	.	2f/	.
.	.	2F/	.	2A/	.	2.a\	.
*Xlig	*	*	*	*	*	*	*
=25-	=25-	=25-	=25-	=25-	=25-	=25-	=25-
*	*	*	*	*lig	*	*	*
2C/	.	1G/	.	1c\	.	.	.
.	.	.	.	.	.	4g/	.
!LO:TX:t=P:problem=kreska pseudotaktowa	!	!	!	!	!	!	!
2E\	.	.	.	.	.	1g\	.
1D\	.	1A\	.	1d\	.	.	.
.	.	.	.	.	.	2f#X/	.
*	*	*	*	*Xlig	*	*	*
=26-	=26-	=26-	=26-	=26-	=26-	=26-	=26-
0GG/;	-son.	0G/;	-son	0B/;	-son.	0g\;	-son.
*	*	*	*Xij	*	*	*	*
==	==	==	==	==	==	==	==
*-	*-	*-	*-	*-	*-	*-	*-
!!!RDF**kern: > = above
!!!RDF**kern: < = below
!!!system-decoration: [(s1,s2,s3,s4)]
!!!EED: Andrzej Borzym
!!!EST: 2021-03-16
!!!ENC: Tomasz Grochalski
!!!END: 2021-02-27
